images/global/icons/experiential/video-library.svg

<svg xmlns="http://www.w3.org/2000/svg" viewBox="0 0 276 137"><defs><path id="a" d="M70.9-108.1h-1.5v38h142v-25.1l-.4-.4-11.4-12-.4-.5H70.9zm0 3h127.6l-1.1-.5 11.4 12-.4-1v23l1.5-1.5h-139l1.5 1.5v-35l-1.5 1.5zm-21.5-23h182v78h-182v-78z"/></defs><defs><path id="b" d="M103.9-56.7c-8 0-14.5-6.5-14.5-14.5s6.5-14.5 14.5-14.5 14.5 6.5 14.5 14.5-6.5 14.5-14.5 14.5zm0 3c9.7 0 17.5-7.8 17.5-17.5s-7.8-17.5-17.5-17.5-17.5 7.8-17.5 17.5 7.9 17.5 17.5 17.5zm-37.5-55h75v75h-75v-75z"/></defs><defs><path id="c" d="M103.9-63.7c-4.1 0-7.5-3.4-7.5-7.5s3.4-7.5 7.5-7.5 7.5 3.4 7.5 7.5c0 4.2-3.3 7.5-7.5 7.5zm0 3c5.8 0 10.5-4.7 10.5-10.5s-4.7-10.5-10.5-10.5S93.4-77 93.4-71.2s4.7 10.5 10.5 10.5zm-30.5-41h61v61h-61v-61z"/></defs><defs><path id="d" d="M170.2-56.7c-8 0-14.5-6.5-14.5-14.5s6.5-14.5 14.5-14.5 14.5 6.5 14.5 14.5-6.5 14.5-14.5 14.5zm0 3c9.7 0 17.5-7.8 17.5-17.5s-7.8-17.5-17.5-17.5-17.5 7.8-17.5 17.5 7.8 17.5 17.5 17.5zm-37.5-55h75v75h-75v-75z"/></defs><defs><path id="e" d="M170.2-63.7c-4.1 0-7.5-3.4-7.5-7.5s3.4-7.5 7.5-7.5 7.5 3.4 7.5 7.5c0 4.2-3.4 7.5-7.5 7.5zm0 3c5.8 0 10.5-4.7 10.5-10.5s-4.7-10.5-10.5-10.5-10.5 4.7-10.5 10.5 4.7 10.5 10.5 10.5zm-30.5-41h61v61h-61v-61z"/></defs><path fill="none" stroke="#091F2F" stroke-width="3" stroke-miterlimit="10" d="M97.8 25h73.5m-73.5 77.5h73.5M97.8 44.8h70.5M97.8 83.7h65.6M99.3 26v75.5m9.8-75.5v75.5M99.3 35h9.8m-9.8 19.5h9.8m-9.8 9.8h9.8M99.3 74h9.8m-9.8 19.5h9.8M160 26.1v75.5m9.7-75.5v75.5M160 35.1h9.7m-9.7 9.7h9.7m-9.7 9.8h9.7m-9.7 9.7h9.7m-9.7 9.8h9.7m-9.7 9.7h9.7m-9.7 9.7h9.7m-41.5-36.6l14.8 7.4-14.8 7.4z"/><circle fill="#FFF" stroke="#0F1F2D" stroke-width="3" stroke-linecap="round" stroke-miterlimit="10" cx="166.5" cy="93.5" r="18.5"/><path fill="none" stroke="#0F1F2D" stroke-width="3" stroke-miterlimit="10" d="M157.2 102.9l8.7-8.6"/><circle fill="#FFF" stroke="#0F1F2D" stroke-width="3" stroke-linecap="round" stroke-miterlimit="10" cx="170.1" cy="89.8" r="6.2"/></svg>

<svg xmlns="http://www.w3.org/2000/svg" xmlns:xlink="http://www.w3.org/1999/xlink" viewBox="0 0 276 137"><defs><path id="a" d="M70.9-108.1h-1.5v38h142v-25.1l-.4-.4-11.4-12-.4-.5H70.9zm0 3h127.6l-1.1-.5 11.4 12-.4-1v23l1.5-1.5h-139l1.5 1.5v-35l-1.5 1.5zm-21.5-23h182v78h-182v-78z"/></defs><clipPath id="b"><use xlink:href="#a" overflow="visible"/></clipPath><g clip-path="url(#b)"><defs><path id="c" d="M70.9-106.6h127.6l11.4 12v23h-139z"/></defs><clipPath id="d"><use xlink:href="#c" overflow="visible"/></clipPath><g clip-path="url(#d)"><defs><path id="e" d="M-301.1-641.6h1121v1030h-1121z"/></defs></g></g><defs><path id="f" d="M70.9-106.6h127.6l11.4 12v23h-139z"/></defs><clipPath id="g"><use xlink:href="#f" overflow="visible"/></clipPath><g clip-path="url(#g)"><defs><path id="h" d="M-301.1-641.6h1121v1030h-1121z"/></defs></g><defs><path id="i" d="M103.9-56.7c-8 0-14.5-6.5-14.5-14.5s6.5-14.5 14.5-14.5 14.5 6.5 14.5 14.5-6.5 14.5-14.5 14.5zm0 3c9.7 0 17.5-7.8 17.5-17.5s-7.8-17.5-17.5-17.5-17.5 7.8-17.5 17.5 7.9 17.5 17.5 17.5zm-37.5-55h75v75h-75v-75z"/></defs><clipPath id="j"><use xlink:href="#i" overflow="visible"/></clipPath><g clip-path="url(#j)"><defs><circle id="k" cx="103.9" cy="-71.2" r="16"/></defs><clipPath id="l"><use xlink:href="#k" overflow="visible"/></clipPath><g clip-path="url(#l)"><defs><path id="m" d="M-301.1-641.6h1121v1030h-1121z"/></defs></g></g><defs><circle id="n" cx="103.9" cy="-71.2" r="16"/></defs><clipPath id="o"><use xlink:href="#n" overflow="visible"/></clipPath><g clip-path="url(#o)"><defs><path id="p" d="M-301.1-641.6h1121v1030h-1121z"/></defs></g><defs><path id="q" d="M103.9-63.7c-4.1 0-7.5-3.4-7.5-7.5s3.4-7.5 7.5-7.5 7.5 3.4 7.5 7.5c0 4.2-3.3 7.5-7.5 7.5zm0 3c5.8 0 10.5-4.7 10.5-10.5s-4.7-10.5-10.5-10.5S93.4-77 93.4-71.2s4.7 10.5 10.5 10.5zm-30.5-41h61v61h-61v-61z"/></defs><clipPath id="r"><use xlink:href="#q" overflow="visible"/></clipPath><g clip-path="url(#r)"><defs><circle id="s" cx="103.9" cy="-71.2" r="9"/></defs><clipPath id="t"><use xlink:href="#s" overflow="visible"/></clipPath><g clip-path="url(#t)"><defs><path id="u" d="M-301.1-641.6h1121v1030h-1121z"/></defs></g></g><defs><circle id="v" cx="103.9" cy="-71.2" r="9"/></defs><clipPath id="w"><use xlink:href="#v" overflow="visible"/></clipPath><g clip-path="url(#w)"><defs><path id="x" d="M-301.1-641.6h1121v1030h-1121z"/></defs></g><defs><path id="y" d="M170.2-56.7c-8 0-14.5-6.5-14.5-14.5s6.5-14.5 14.5-14.5 14.5 6.5 14.5 14.5-6.5 14.5-14.5 14.5zm0 3c9.7 0 17.5-7.8 17.5-17.5s-7.8-17.5-17.5-17.5-17.5 7.8-17.5 17.5 7.8 17.5 17.5 17.5zm-37.5-55h75v75h-75v-75z"/></defs><clipPath id="z"><use xlink:href="#y" overflow="visible"/></clipPath><g clip-path="url(#z)"><defs><circle id="A" cx="170.2" cy="-71.2" r="16"/></defs><clipPath id="B"><use xlink:href="#A" overflow="visible"/></clipPath><g clip-path="url(#B)"><defs><path id="C" d="M-301.1-641.6h1121v1030h-1121z"/></defs></g></g><g><defs><circle id="D" cx="170.2" cy="-71.2" r="16"/></defs><clipPath id="E"><use xlink:href="#D" overflow="visible"/></clipPath><g clip-path="url(#E)"><defs><path id="F" d="M-301.1-641.6h1121v1030h-1121z"/></defs></g></g><g><defs><path id="G" d="M170.4-111.5l-7.7-15.6h-27.2v15.6h34.9zm-75.2 0l7.4-15.6h27.2v15.6H95.2zm-10.3 5.3L99-133.1h66.8l15.3 27.9-96.2-1z"/></defs><clipPath id="H"><use xlink:href="#G" overflow="visible"/></clipPath><g clip-path="url(#H)"><defs><path id="I" d="M-301.1-641.6h1121v1030h-1121z"/></defs></g></g><g><defs><path id="J" d="M170.2-63.7c-4.1 0-7.5-3.4-7.5-7.5s3.4-7.5 7.5-7.5 7.5 3.4 7.5 7.5c0 4.2-3.4 7.5-7.5 7.5zm0 3c5.8 0 10.5-4.7 10.5-10.5s-4.7-10.5-10.5-10.5-10.5 4.7-10.5 10.5 4.7 10.5 10.5 10.5zm-30.5-41h61v61h-61v-61z"/></defs><clipPath id="K"><use xlink:href="#J" overflow="visible"/></clipPath><g clip-path="url(#K)"><defs><circle id="L" cx="170.2" cy="-71.2" r="9"/></defs><clipPath id="M"><use xlink:href="#L" overflow="visible"/></clipPath><g clip-path="url(#M)"><defs><path id="N" d="M-301.1-641.6h1121v1030h-1121z"/></defs></g></g></g><g><defs><circle id="O" cx="170.2" cy="-71.2" r="9"/></defs><clipPath id="P"><use xlink:href="#O" overflow="visible"/></clipPath><g clip-path="url(#P)"><defs><path id="Q" d="M-301.1-641.6h1121v1030h-1121z"/></defs></g></g><path fill="none" stroke="#091F2F" stroke-width="3" stroke-miterlimit="10" d="M97.8 25h73.5M97.8 102.5h73.5M97.8 44.8h70.5M97.8 83.7h65.6"/><g fill="none" stroke="#091F2F" stroke-width="3" stroke-miterlimit="10"><path d="M99.3 26v75.5M109.1 26v75.5M99.3 35h9.8M99.3 54.5h9.8M99.3 64.3h9.8M99.3 74h9.8M99.3 93.5h9.8"/></g><g fill="none" stroke="#091F2F" stroke-width="3" stroke-miterlimit="10"><path d="M160 26.1v75.5M169.7 26.1v75.5M160 35.1h9.7M160 44.8h9.7M160 54.6h9.7M160 64.3h9.7M160 74.1h9.7M160 83.8h9.7M160 93.5h9.7"/></g><path fill="none" stroke="#091F2F" stroke-width="3" stroke-miterlimit="10" d="M128.2 56.9l14.8 7.4-14.8 7.4z"/><circle fill="#FFF" stroke="#0F1F2D" stroke-width="3" stroke-linecap="round" stroke-miterlimit="10" cx="166.5" cy="93.5" r="18.5"/><path fill="none" stroke="#0F1F2D" stroke-width="3" stroke-miterlimit="10" d="M157.2 102.9l8.7-8.6"/><circle fill="#FFF" stroke="#0F1F2D" stroke-width="3" stroke-linecap="round" stroke-miterlimit="10" cx="170.1" cy="89.8" r="6.2"/></svg>
